Obsidian-SemiLight/actions/16s/view-time-schedule-baselined.svg

<svg viewBox="0 0 16 16" xmlns="http://www.w3.org/2000/svg"><g transform="translate(-421.71429 -531.79074)"><rect fill="#1d99f3" height="8" ry=".000025" width="1" x="430.71429" y="536.79071"/><path d="m2 2v12h12v-12h-2v2h-2v-2h-4v2h-2v-2zm1 3h10v8h-10zm1 1v3h1v-1h3v1h1v-3h-1v1h-3v-1zm4 3h-1v3h1v-1h3v1h1v-3h-1v1h-3z" fill="#4d4d4d" transform="translate(421.71429 531.79074)"/></g></svg>

<svg xmlns="http://www.w3.org/2000/svg" viewBox="0 0 16 16">
  <defs id="defs3051">
    <style type="text/css" id="current-color-scheme">
      .ColorScheme-Text {
        color:#4d4d4d;
      }
      </style>
  </defs>
  <g
     transform="translate(-421.71429,-531.79074)">
    <rect
       style="opacity:1;fill:#1d99f3;fill-opacity:1;stroke:none;stroke-linecap:round"
       id="rect4143"
       width="1"
       height="8"
       x="430.71429"
       y="536.79071"
       ry="2.53291e-05" />
    <path
       style="fill:currentColor;fill-opacity:1;stroke:none" 
       d="M 2 2 L 2 14 L 14 14 L 14 2 L 12 2 L 12 4 L 10 4 L 10 2 L 6 2 L 6 4 L 4 4 L 4 2 L 2 2 z M 3 5 L 13 5 L 13 13 L 3 13 L 3 5 z M 4 6 L 4 9 L 5 9 L 5 8 L 8 8 L 8 9 L 9 9 L 9 6 L 8 6 L 8 7 L 5 7 L 5 6 L 4 6 z M 8 9 L 7 9 L 7 12 L 8 12 L 8 11 L 11 11 L 11 12 L 12 12 L 12 9 L 11 9 L 11 10 L 8 10 L 8 9 z "
       transform="translate(421.71429,531.79074)"
     class="ColorScheme-Text"
       id="rect4449" />
  </g>
</svg>
